static/assets/img/icons/theme/media/movie-lane-2.svg

<svg height="24" viewBox="0 0 24 24" width="24" xmlns="http://www.w3.org/2000/svg"><g fill="none" fill-rule="evenodd"><path d="m0 0h24v24h-24z" opacity="0"/><g fill="#000"><path d="m6 3h12c1.1045695 0 2 .8954305 2 2v14c0 1.1045695-.8954305 2-2 2h-12c-1.1045695 0-2-.8954305-2-2v-14c0-1.1045695.8954305-2 2-2zm-.5 2c-.27614237 0-.5.22385763-.5.5v1c0 .27614237.22385763.5.5.5h1c.27614237 0 .5-.22385763.5-.5v-1c0-.27614237-.22385763-.5-.5-.5zm12 0c-.2761424 0-.5.22385763-.5.5v1c0 .27614237.2238576.5.5.5h1c.2761424 0 .5-.22385763.5-.5v-1c0-.27614237-.2238576-.5-.5-.5zm-12 4c-.27614237 0-.5.22385763-.5.5v1c0 .2761424.22385763.5.5.5h1c.27614237 0 .5-.2238576.5-.5v-1c0-.27614237-.22385763-.5-.5-.5zm12 0c-.2761424 0-.5.22385763-.5.5v1c0 .2761424.2238576.5.5.5h1c.2761424 0 .5-.2238576.5-.5v-1c0-.27614237-.2238576-.5-.5-.5zm-12 4c-.27614237 0-.5.2238576-.5.5v1c0 .2761424.22385763.5.5.5h1c.27614237 0 .5-.2238576.5-.5v-1c0-.2761424-.22385763-.5-.5-.5zm12 0c-.2761424 0-.5.2238576-.5.5v1c0 .2761424.2238576.5.5.5h1c.2761424 0 .5-.2238576.5-.5v-1c0-.2761424-.2238576-.5-.5-.5zm0 4c-.2761424 0-.5.2238576-.5.5v1c0 .2761424.2238576.5.5.5h1c.2761424 0 .5-.2238576.5-.5v-1c0-.2761424-.2238576-.5-.5-.5zm-12 0c-.27614237 0-.5.2238576-.5.5v1c0 .2761424.22385763.5.5.5h1c.27614237 0 .5-.2238576.5-.5v-1c0-.2761424-.22385763-.5-.5-.5z" opacity=".3"/><path d="m11.3521577 14.5722612 2.6046865-1.7804499c.2279717-.1558316.286453-.4669657.1306214-.6949374-.0347715-.0508686-.078646-.0948719-.1294124-.1297925l-2.6046865-1.7916773c-.2275139-.1564993-.5388181-.0989306-.6953174.1285834-.0573474.0833699-.0880496.1821777-.0880496.283367v3.5721273c0 .2761423.2238576.5.5.5.1006894 0 .199033-.0304.282158-.0872206z"/></g></g></svg>

<svg width="24px" height="24px" viewBox="0 0 24 24" version="1.1" xmlns="http://www.w3.org/2000/svg" xmlns:xlink="http://www.w3.org/1999/xlink">
    <title>Icon For Movie-Lane #2</title>
    <g stroke="none" stroke-width="1" fill="none" fill-rule="evenodd">
        <rect opacity="0" x="0" y="0" width="24" height="24"></rect>
        <path d="M6,3 L18,3 C19.1045695,3 20,3.8954305 20,5 L20,19 C20,20.1045695 19.1045695,21 18,21 L6,21 C4.8954305,21 4,20.1045695 4,19 L4,5 C4,3.8954305 4.8954305,3 6,3 Z M5.5,5 C5.22385763,5 5,5.22385763 5,5.5 L5,6.5 C5,6.77614237 5.22385763,7 5.5,7 L6.5,7 C6.77614237,7 7,6.77614237 7,6.5 L7,5.5 C7,5.22385763 6.77614237,5 6.5,5 L5.5,5 Z M17.5,5 C17.2238576,5 17,5.22385763 17,5.5 L17,6.5 C17,6.77614237 17.2238576,7 17.5,7 L18.5,7 C18.7761424,7 19,6.77614237 19,6.5 L19,5.5 C19,5.22385763 18.7761424,5 18.5,5 L17.5,5 Z M5.5,9 C5.22385763,9 5,9.22385763 5,9.5 L5,10.5 C5,10.7761424 5.22385763,11 5.5,11 L6.5,11 C6.77614237,11 7,10.7761424 7,10.5 L7,9.5 C7,9.22385763 6.77614237,9 6.5,9 L5.5,9 Z M17.5,9 C17.2238576,9 17,9.22385763 17,9.5 L17,10.5 C17,10.7761424 17.2238576,11 17.5,11 L18.5,11 C18.7761424,11 19,10.7761424 19,10.5 L19,9.5 C19,9.22385763 18.7761424,9 18.5,9 L17.5,9 Z M5.5,13 C5.22385763,13 5,13.2238576 5,13.5 L5,14.5 C5,14.7761424 5.22385763,15 5.5,15 L6.5,15 C6.77614237,15 7,14.7761424 7,14.5 L7,13.5 C7,13.2238576 6.77614237,13 6.5,13 L5.5,13 Z M17.5,13 C17.2238576,13 17,13.2238576 17,13.5 L17,14.5 C17,14.7761424 17.2238576,15 17.5,15 L18.5,15 C18.7761424,15 19,14.7761424 19,14.5 L19,13.5 C19,13.2238576 18.7761424,13 18.5,13 L17.5,13 Z M17.5,17 C17.2238576,17 17,17.2238576 17,17.5 L17,18.5 C17,18.7761424 17.2238576,19 17.5,19 L18.5,19 C18.7761424,19 19,18.7761424 19,18.5 L19,17.5 C19,17.2238576 18.7761424,17 18.5,17 L17.5,17 Z M5.5,17 C5.22385763,17 5,17.2238576 5,17.5 L5,18.5 C5,18.7761424 5.22385763,19 5.5,19 L6.5,19 C6.77614237,19 7,18.7761424 7,18.5 L7,17.5 C7,17.2238576 6.77614237,17 6.5,17 L5.5,17 Z" fill="#000000" opacity="0.3"></path>
        <path d="M11.3521577,14.5722612 L13.9568442,12.7918113 C14.1848159,12.6359797 14.2432972,12.3248456 14.0874656,12.0968739 C14.0526941,12.0460053 14.0088196,12.002002 13.9580532,11.9670814 L11.3533667,10.1754041 C11.1258528,10.0189048 10.8145486,10.0764735 10.6580493,10.3039875 C10.6007019,10.3873574 10.5699997,10.4861652 10.5699997,10.5873545 L10.5699997,14.1594818 C10.5699997,14.4356241 10.7938573,14.6594818 11.0699997,14.6594818 C11.1706891,14.6594818 11.2690327,14.6290818 11.3521577,14.5722612 Z" fill="#000000"></path>
    </g>
</svg>
